raws/icons/decors/check-mark-icon.svg

<svg width="10" height="11" viewBox="0 0 10 11" fill="none" xmlns="http://www.w3.org/2000/svg">
<mask id="path-1-inside-1_35_2257" fill="white">
<path d="M6.95996 0.970215L9.63648 3.64673L2.91896 10.3642L0.242442 7.68773L6.95996 0.970215Z"/>
</mask>
<path d="M2.91896 10.3642L1.23958 12.0436L2.91896 13.723L4.59834 12.0436L2.91896 10.3642ZM7.9571 1.96735L1.23958 8.68487L4.59834 12.0436L11.3159 5.32611L7.9571 1.96735ZM4.59834 8.68487L1.92182 6.00836L-1.43694 9.36711L1.23958 12.0436L4.59834 8.68487Z" fill="white" mask="url(#path-1-inside-1_35_2257)"/>
</svg>

<svg width="10" height="11" fill="none" xmlns="http://www.w3.org/2000/svg"><mask id="a" fill="#fff"><path d="M6.96.97l2.676 2.677-6.717 6.717L.242 7.688 6.96.97z"/></mask><path d="M2.919 10.364l-1.68 1.68 1.68 1.679 1.68-1.68-1.68-1.679zm5.038-8.397L1.24 8.685l3.358 3.359 6.718-6.718-3.359-3.359zM4.598 8.685L1.922 6.008l-3.359 3.36 2.677 2.676 3.358-3.36z" fill="#fff" mask="url(#a)"/></svg>
